src/images/characters/SquareBrackets_1.svg

<?xml version="1.0" encoding="UTF-8"?><svg id="a" xmlns="http://www.w3.org/2000/svg" xmlns:xlink="http://www.w3.org/1999/xlink" viewBox="0 0 150 150"><defs><style>.c,.d{fill:none;}.d{stroke-linecap:round;}.d,.e,.f,.g{stroke-linejoin:round;}.d,.e,.g{stroke:#0b6a88;}.h{fill:#fff;}.i,.e{fill:#0b6a88;}.e{stroke-width:1.79px;}.j{clip-path:url(#b);}.f{fill:#c5c6c8;stroke:#909395;}.g{fill:#2dc5f4;}</style><clipPath id="b"><rect class="c" width="149.49" height="149.49"/></clipPath></defs><g class="j"><path class="g" d="M49.16,198.73l26.78-3.53,1.89,14.35-49.79,6.56L7.21,57.93l49.79-6.56,1.89,14.35-26.78,3.53,17.05,129.48Z"/><path class="e" d="M93.82,112.06s2.37,12.8-11.53,14.63c-13.9,1.83-14.92-11.15-14.92-11.15l26.45-3.48Z"/><path class="g" d="M100.94,60.18l-26.78,3.53-1.89-14.35,49.79-6.56,20.83,158.19-49.79,6.56-1.89-14.35,26.78-3.53L100.94,60.18Z"/><ellipse class="i" cx="67.59" cy="95.46" rx="7.12" ry="15.48" transform="translate(-11.89 9.64) rotate(-7.5)"/><path class="f" d="M64.96,128.52c-1.46,.9-2.63,2.28-3.25,4.02-14.9,41.98-49.83,78.31-50.18,78.67-2.99,3.09-2.92,8.02,.17,11.01,3.09,3,8.02,2.92,11.01-.16,1.53-1.57,37.62-39.06,53.68-84.31,1.44-4.05-.68-8.51-4.73-9.95-2.31-.82-4.76-.48-6.7,.71Z"/><ellipse class="h" cx="70.38" cy="90.82" rx="2.28" ry="4" transform="translate(-12.88 11.64) rotate(-8.67)"/><ellipse class="i" cx="87.24" cy="93.02" rx="7.12" ry="15.48" transform="translate(-11.4 12.19) rotate(-7.5)"/><ellipse class="h" cx="90.03" cy="88.38" rx="2.28" ry="4" transform="translate(-12.29 14.58) rotate(-8.67)"/><path class="d" d="M55.12,82.4s-.79-7.94,6.52-8.65"/><path class="d" d="M95.32,77.88s-.03-7.98-7.37-7.93"/></g></svg>

<svg id="Layer_1" data-name="Layer 1" xmlns="http://www.w3.org/2000/svg" xmlns:xlink="http://www.w3.org/1999/xlink" viewBox="0 0 150 150"><defs><style>.cls-1,.cls-8{fill:none;}.cls-2{clip-path:url(#clip-path);}.cls-3{fill:#2dc5f4;}.cls-3,.cls-4,.cls-8{stroke:#0b6a88;}.cls-3,.cls-4,.cls-6,.cls-8{stroke-linejoin:round;}.cls-4,.cls-5{fill:#0b6a88;}.cls-4{stroke-width:1.79px;}.cls-6{fill:#c5c6c8;stroke:#909395;}.cls-7{fill:#fff;}.cls-8{stroke-linecap:round;}</style><clipPath id="clip-path"><rect class="cls-1" width="149.49" height="149.49"/></clipPath></defs><g class="cls-2"><path class="cls-3" d="M49.16,198.73,76,195.2l1.89,14.36-49.79,6.55L7.21,57.93,57,51.37l1.89,14.35L32.11,69.25Z"/><path class="cls-4" d="M93.82,112.06s2.36,12.8-11.53,14.63-14.93-11.15-14.93-11.15Z"/><path class="cls-3" d="M100.94,60.18,74.15,63.71,72.26,49.36l49.79-6.56L142.88,201,93.1,207.55l-1.89-14.36L118,189.67Z"/><ellipse class="cls-5" cx="67.59" cy="95.46" rx="7.12" ry="15.48" transform="translate(-11.89 9.64) rotate(-7.5)"/><path class="cls-6" d="M65,128.52a7.71,7.71,0,0,0-3.25,4c-14.91,42-49.83,78.31-50.18,78.68a7.79,7.79,0,0,0,11.18,10.85c1.52-1.58,37.61-39.06,53.68-84.32A7.79,7.79,0,0,0,65,128.52Z"/><ellipse class="cls-7" cx="70.38" cy="90.82" rx="2.28" ry="4" transform="translate(-12.88 11.64) rotate(-8.67)"/><ellipse class="cls-5" cx="87.24" cy="93.02" rx="7.12" ry="15.48" transform="translate(-11.4 12.19) rotate(-7.5)"/><ellipse class="cls-7" cx="90.03" cy="88.38" rx="2.28" ry="4" transform="translate(-12.29 14.58) rotate(-8.67)"/><path class="cls-8" d="M55.12,82.4s-.79-7.94,6.52-8.64"/><path class="cls-8" d="M95.32,77.88s0-8-7.37-7.94"/></g></svg>
